library/icons/jdrf.svg

<svg xmlns="http://www.w3.org/2000/svg" viewBox="0 0 116 31.93" fill="currentColor" stroke-width="0"><title>JDRF</title><path d="M115.11 6.26L116 0H92l-4.35 31.33h6.93l1.69-12.13h15.02l.86-6.28H97.13l.93-6.66h17.05zM87.62 10.58v-.1c.4-3-.19-5.42-1.7-7.16-1.79-2-4.73-3.18-8.74-3.18H62.81l-4.35 31.33h6.93l3.49-25.09h6.87c3.37 0 5.23 1.52 4.83 4.46v.1c-.35 2.62-2.55 4.44-5.92 4.44H69.4l8.17 16.12h8.09l-6.13-11.2a11.61 11.61 0 0 0 8.09-9.72M43.51.05H10.08l-.77 5.51h8l-2 14.76c-.5 3.63-2.34 5.18-5 5.18-2.19 0-3.79-1.17-5.32-3.12L0 27.22c1.81 2.56 4.75 4.71 9.65 4.71A12.7 12.7 0 0 0 18.24 29a13.17 13.17 0 0 0 4.14-8.35l2.07-15v.08h18.27c5.66 0 8.89 4.41 8.12 10v.1A10.6 10.6 0 0 1 40 25.17h-6l2.44-17.36h-7.21l-2.36 5.06h2.57l-2.57 18.51h12.27c9.91 0 17.7-6.85 18.91-15.67v-.09C59.3 6.81 53.4.05 43.51.05"/></svg>

<svg xmlns="http://www.w3.org/2000/svg" viewBox="0 0 116 31.93" fill="currentColor" stroke-width="0"><title>JDRF</title><path d="M115.11,6.26,116,0H92L87.65,31.33h6.93L96.27,19.2h15l.86-6.28h-15l.93-6.66ZM87.62,10.58v-.1c.4-3-.19-5.42-1.7-7.16-1.79-2-4.73-3.18-8.74-3.18H62.81L58.46,31.47h6.93L68.88,6.38h6.87c3.37,0,5.23,1.52,4.83,4.46v.1c-.35,2.62-2.55,4.44-5.92,4.44H69.4L77.57,31.5h8.09L79.53,20.3a11.61,11.61,0,0,0,8.09-9.72M43.51.05H10.08L9.31,5.56h8l-2,14.76c-.5,3.63-2.34,5.18-5,5.18-2.19,0-3.79-1.17-5.32-3.12L0,27.22c1.81,2.56,4.75,4.71,9.65,4.71A12.72,12.72,0,0,0,18.24,29a13.22,13.22,0,0,0,4.14-8.35l2.07-15v.08H42.72c5.66,0,8.89,4.41,8.12,10v.1A10.6,10.6,0,0,1,40,25.17H34L36.44,7.81H29.23l-2.36,5.06h2.57L26.87,31.38H39.14c9.91,0,17.7-6.85,18.91-15.67v-.09C59.3,6.81,53.4.05,43.51.05"/></svg>
